elements/rpg-character/lib/base/R.svg

<svg width="113" height="142" viewBox="0 0 113 142" fill="none" xmlns="http://www.w3.org/2000/svg">
<path d="M73 127H58V117H73V127Z" fill="#594930"/>
<path d="M59.5 120.5V118.5H71.5V120.5M59.5 120.5H71.5M59.5 120.5V122.5M71.5 120.5V122.5M59.5 122.5V125.5H71.5V122.5M59.5 122.5H71.5" stroke="#4B3E29"/>
</svg>

<svg xmlns="http://www.w3.org/2000/svg" fill="none" width="113" height="142" viewBox="0 0 113 142"><path d="M73 127H58v-10h15v10Z" fill="#594930"/><path d="M59.5 120.5v-2h12v2m-12 0h12m-12 0v2m12-2v2m-12 0v3h12v-3m-12 0h12" stroke="#4B3E29"/></svg>
